; generated by PrusaSlicer 2.3.0+win64 on 2021-03-08 at 14:46:57 UTC

; 

; external perimeters extrusion width = 0.45mm
; perimeters extrusion width = 0.45mm
; infill extrusion width = 0.45mm
; solid infill extrusion width = 0.45mm
; top infill extrusion width = 0.40mm
; support material extrusion width = 0.35mm
; first layer extrusion width = 0.42mm

M201 X9000 Y9000 Z500 E10000 ; sets maximum accelerations, mm/sec^2
M203 X500 Y500 Z12 E120 ; sets maximum feedrates, mm/sec
M204 P1500 R1500 T1500 ; sets acceleration (P, T) and retract acceleration (R), mm/sec^2
M205 X10.00 Y10.00 Z0.20 E2.50 ; sets the jerk limits, mm/sec
M205 S0 T0 ; sets the minimum extruding and travel feed rate, mm/sec
M107
M190 S65 ; set bed temperature and wait for it to be reached
M104 S215 ; set temperature
;TYPE:Custom
G28 ; home all axes
G1 Z5 F5000 ; lift nozzle
M109 S215 ; set temperature and wait for it to be reached
G21 ; set units to millimeters
G90 ; use absolute coordinates
M82 ; use absolute distances for extrusion
G92 E0
; Filament gcode
;LAYER_CHANGE
;Z:0.25
;HEIGHT:0.25
G1 Z0.250 F9000.000
G1 E-4.00000 F2400.000
G92 E0
G1 Z0.350 F9000.000
G1 X69.410 Y87.210
G1 Z0.250
G1 E4.00000 F2400.000
;TYPE:External perimeter
;WIDTH:0.42
G1 X150.590 Y87.210 E7.09114
G1 X150.590 Y132.790 E8.82672
G1 X69.410 Y132.790 E11.91786
G1 X69.410 Y87.270 E13.65115
G1 E9.65115
G92 E0
G1 Z0.350 F9000.000
G1 X150.480 Y88.064
G1 Z0.250
G1 E4.00000 F2400.000
;TYPE:Solid infill
;WIDTH:0.421443
G1 X149.901 Y87.485 E4.03129
G1 X149.381 Y87.485 E4.05117
G1 X150.315 Y88.419 E4.10167
G1 X150.315 Y88.939 E4.12156
G1 X148.861 Y87.485 E4.20017
G1 X148.341 Y87.485 E4.22006
G1 X150.315 Y89.459 E4.32679
G1 X150.315 Y89.979 E4.34668
G1 X147.821 Y87.485 E4.48153
G1 X147.301 Y87.485 E4.50142
G1 X150.315 Y90.499 E4.66439
G1 X150.315 Y91.020 E4.68428
G1 X146.780 Y87.485 E4.87537
G1 X146.260 Y87.485 E4.89526
G1 X150.315 Y91.540 E5.11447
G1 X150.315 Y92.060 E5.13436
G1 X145.740 Y87.485 E5.38169
G1 X145.220 Y87.485 E5.40158
G1 X150.315 Y92.580 E5.67703
G1 X150.315 Y93.100 E5.69691
G1 X144.700 Y87.485 E6.00049
G1 X144.180 Y87.485 E6.02037
G1 X150.315 Y93.620 E6.35207
G1 X150.315 Y94.140 E6.37195
G1 X143.660 Y87.485 E6.73177
G1 X143.140 Y87.485 E6.75165
G1 X150.315 Y94.660 E7.13958
G1 X150.315 Y95.181 E7.15947
G1 X142.619 Y87.485 E7.57552
G1 X142.099 Y87.485 E7.59541
G1 X150.315 Y95.701 E8.03958
G1 X150.315 Y96.221 E8.05946
G1 X141.579 Y87.485 E8.53176
G1 X141.059 Y87.485 E8.55164
G1 X150.315 Y96.741 E9.05205
G1 X150.315 Y97.261 E9.07194
G1 X140.539 Y87.485 E9.60047
G1 X140.019 Y87.485 E9.62035
G1 X150.315 Y97.781 E10.17700
G1 X150.315 Y98.301 E10.19689
G1 X139.499 Y87.485 E10.78166
G1 X138.978 Y87.485 E10.80154
G1 X150.315 Y98.822 E11.41444
G1 X150.315 Y99.342 E11.43432
G1 X138.458 Y87.485 E12.07533
G1 X137.938 Y87.485 E12.09522
G1 X150.315 Y99.862 E12.76435
G1 X150.315 Y100.382 E12.78423
G1 X137.418 Y87.485 E13.48148
G1 X136.898 Y87.485 E13.50136
G1 X150.315 Y100.902 E14.22674
G1 X150.315 Y101.422 E14.24662
G1 X136.378 Y87.485 E15.00011
G1 X135.858 Y87.485 E15.01999
G1 X150.315 Y101.942 E15.80160
G1 X150.315 Y102.463 E15.82149
G1 X135.337 Y87.485 E16.63122
G1 X134.817 Y87.485 E16.65110
G1 X150.315 Y102.983 E17.48895
G1 X150.315 Y103.503 E17.50883
G1 X134.297 Y87.485 E18.37480
G1 X133.777 Y87.485 E18.39469
G1 X150.315 Y104.023 E19.28878
G1 X150.315 Y104.543 E19.30866
G1 X133.257 Y87.485 E20.23087
G1 X132.737 Y87.485 E20.25075
G1 X150.315 Y105.063 E21.20108
G1 X150.315 Y105.583 E21.22096
G1 X132.217 Y87.485 E22.19941
G1 X131.696 Y87.485 E22.21930
G1 X150.315 Y106.104 E23.22586
G1 X150.315 Y106.624 E23.24575
G1 X131.176 Y87.485 E24.28044
G1 X130.656 Y87.485 E24.30032
G1 X150.315 Y107.144 E25.36313
G1 X150.315 Y107.664 E25.38301
G1 X130.136 Y87.485 E26.47394
G1 X129.616 Y87.485 E26.49382
G1 X150.315 Y108.184 E27.61287
G1 X150.315 Y108.704 E27.63275
G1 X129.096 Y87.485 E28.77992
G1 X128.576 Y87.485 E28.79980
G1 X150.315 Y109.224 E29.97509
G1 X150.315 Y109.744 E29.99497
G1 X128.056 Y87.485 E31.19838
G1 X127.535 Y87.485 E31.21826
G1 X150.315 Y110.265 E32.44979
G1 X150.315 Y110.785 E32.46967
G1 X127.015 Y87.485 E33.72932
G1 X126.495 Y87.485 E33.74920
G1 X150.315 Y111.305 E35.03696
G1 X150.315 Y111.825 E35.05685
G1 X125.975 Y87.485 E36.37273
G1 X125.455 Y87.485 E36.39262
G1 X150.315 Y112.345 E37.73662
G1 X150.315 Y112.865 E37.75650
G1 X124.935 Y87.485 E39.12863
G1 X124.415 Y87.485 E39.14851
G1 X150.315 Y113.385 E40.54876
G1 X150.315 Y113.906 E40.56864
G1 X123.894 Y87.485 E41.99700
G1 X123.374 Y87.485 E42.01689
G1 X150.315 Y114.426 E43.47337
G1 X150.315 Y114.946 E43.49325
G1 X122.854 Y87.485 E44.97786
G1 X122.334 Y87.485 E44.99774
G1 X150.315 Y115.466 E46.51046
G1 X150.315 Y115.986 E46.53035
G1 X121.814 Y87.485 E48.07119
G1 X121.294 Y87.485 E48.09107
G1 X150.315 Y116.506 E49.66004
G1 X150.315 Y117.026 E49.67992
G1 X120.774 Y87.485 E51.27700
G1 X120.253 Y87.485 E51.29689
G1 X150.315 Y117.547 E52.92209
G1 X150.315 Y118.067 E52.94197
G1 X119.733 Y87.485 E54.59529
G1 X119.213 Y87.485 E54.61518
G1 X150.315 Y118.587 E56.29662
G1 X150.315 Y119.107 E56.31650
G1 X118.693 Y87.485 E58.02606
G1 X118.173 Y87.485 E58.04594
G1 X150.315 Y119.627 E59.78363
G1 X150.315 Y120.147 E59.80351
G1 X117.653 Y87.485 E61.56931
G1 X117.133 Y87.485 E61.58919
G1 X150.315 Y120.667 E63.38311
G1 X150.315 Y121.188 E63.40300
G1 X116.612 Y87.485 E65.22504
G1 X116.092 Y87.485 E65.24492
G1 X150.315 Y121.708 E67.09508
G1 X150.315 Y122.228 E67.11496
G1 X115.572 Y87.485 E68.99324
G1 X115.052 Y87.485 E69.01313
G1 X150.315 Y122.748 E70.91952
G1 X150.315 Y123.268 E70.93941
G1 X114.532 Y87.485 E72.87393
G1 X114.012 Y87.485 E72.89381
G1 X150.315 Y123.788 E74.85645
G1 X150.315 Y124.308 E74.87633
G1 X113.492 Y87.485 E76.86709
G1 X112.972 Y87.485 E76.88697
G1 X150.315 Y124.828 E78.90585
G1 X150.315 Y125.349 E78.92574
G1 X112.451 Y87.485 E80.97273
G1 X111.931 Y87.485 E80.99262
G1 X150.315 Y125.869 E83.06773
G1 X150.315 Y126.389 E83.08762
G1 X111.411 Y87.485 E85.19085
G1 X110.891 Y87.485 E85.21074
G1 X150.315 Y126.909 E87.34209
G1 X150.315 Y127.429 E87.36198
G1 X110.371 Y87.485 E89.52145
G1 X109.851 Y87.485 E89.54134
G1 X150.315 Y127.949 E91.72893
G1 X150.315 Y128.469 E91.74882
G1 X109.331 Y87.485 E93.96453
G1 X108.810 Y87.485 E93.98442
G1 X150.315 Y128.990 E96.22825
G1 X150.315 Y129.510 E96.24814
G1 X108.290 Y87.485 E98.52009
G1 X107.770 Y87.485 E98.53998
G1 X150.315 Y130.030 E100.84005
G1 X150.315 Y130.550 E100.85993
G1 X107.250 Y87.485 E103.18813
G1 X106.730 Y87.485 E103.20801
G1 X150.315 Y131.070 E105.56433
G1 X150.315 Y131.590 E105.58421
G1 X106.210 Y87.485 E107.96864
G1 X105.690 Y87.485 E107.98853
G1 X150.315 Y132.110 E110.40108
G1 X150.315 Y132.515 E110.41656
G1 X150.200 Y132.515 E110.42096
G1 X105.169 Y87.485 E112.85541
G1 X104.649 Y87.485 E112.87529
G1 X149.680 Y132.515 E115.30973
G1 X149.160 Y132.515 E115.32961
G1 X104.129 Y87.485 E117.76405
G1 X103.609 Y87.485 E117.78394
G1 X148.640 Y132.515 E120.21838
G1 X148.119 Y132.515 E120.23826
G1 X103.089 Y87.485 E122.67270
G1 X102.569 Y87.485 E122.69259
G1 X147.599 Y132.515 E125.12703
G1 X147.079 Y132.515 E125.14691
G1 X102.049 Y87.485 E127.58135
G1 X101.529 Y87.485 E127.60124
G1 X146.559 Y132.515 E130.03568
G1 X146.039 Y132.515 E130.05556
G1 X101.008 Y87.485 E132.49000
G1 X100.488 Y87.485 E132.50989
G1 X145.519 Y132.515 E134.94433
G1 X144.999 Y132.515 E134.96421
G1 X99.968 Y87.485 E137.39865
G1 X99.448 Y87.485 E137.41853
G1 X144.478 Y132.515 E139.85298
G1 X143.958 Y132.515 E139.87286
G1 X98.928 Y87.485 E142.30730
G1 X98.408 Y87.485 E142.32718
G1 X143.438 Y132.515 E144.76162
G1 X142.918 Y132.515 E144.78151
G1 X97.888 Y87.485 E147.21595
G1 X97.367 Y87.485 E147.23583
G1 X142.398 Y132.515 E149.67027
G1 X141.878 Y132.515 E149.69016
G1 X96.847 Y87.485 E152.12460
G1 X96.327 Y87.485 E152.14448
G1 X141.358 Y132.515 E154.57892
G1 X140.837 Y132.515 E154.59881
G1 X95.807 Y87.485 E157.03325
G1 X95.287 Y87.485 E157.05313
G1 X140.317 Y132.515 E159.48757
G1 X139.797 Y132.515 E159.50746
G1 X94.767 Y87.485 E161.94190
G1 X94.247 Y87.485 E161.96178
G1 X139.277 Y132.515 E164.39622
G1 X138.757 Y132.515 E164.41610
G1 X93.726 Y87.485 E166.85055
G1 X93.206 Y87.485 E166.87043
G1 X138.237 Y132.515 E169.30487
G1 X137.717 Y132.515 E169.32475
G1 X92.686 Y87.485 E171.75919
G1 X92.166 Y87.485 E171.77908
G1 X137.197 Y132.515 E174.21352
G1 X136.676 Y132.515 E174.23340
G1 X91.646 Y87.485 E176.66784
G1 X91.126 Y87.485 E176.68773
G1 X136.156 Y132.515 E179.12217
G1 X135.636 Y132.515 E179.14205
G1 X90.606 Y87.485 E181.57649
G1 X90.085 Y87.485 E181.59638
G1 X135.116 Y132.515 E184.03082
G1 X134.596 Y132.515 E184.05070
G1 X89.565 Y87.485 E186.48514
G1 X89.045 Y87.485 E186.50503
G1 X134.076 Y132.515 E188.93947
G1 X133.556 Y132.515 E188.95935
G1 X88.525 Y87.485 E191.39379
G1 X88.005 Y87.485 E191.41367
G1 X133.035 Y132.515 E193.84812
G1 X132.515 Y132.515 E193.86800
G1 X87.485 Y87.485 E196.30244
G1 X86.965 Y87.485 E196.32232
G1 X131.995 Y132.515 E198.75676
G1 X131.475 Y132.515 E198.77665
G1 X86.445 Y87.485 E201.21109
G1 X85.924 Y87.485 E201.23097
G1 X130.955 Y132.515 E203.66541
G1 X130.435 Y132.515 E203.68530
G1 X85.404 Y87.485 E206.11974
G1 X84.884 Y87.485 E206.13962
G1 X129.915 Y132.515 E208.57406
G1 X129.394 Y132.515 E208.59395
G1 X84.364 Y87.485 E211.02839
G1 X83.844 Y87.485 E211.04827
G1 X128.874 Y132.515 E213.48271
G1 X128.354 Y132.515 E213.50260
G1 X83.324 Y87.485 E215.93704
G1 X82.804 Y87.485 E215.95692
G1 X127.834 Y132.515 E218.39136
G1 X127.314 Y132.515 E218.41124
G1 X82.283 Y87.485 E220.84569
G1 X81.763 Y87.485 E220.86557
G1 X126.794 Y132.515 E223.30001
G1 X126.274 Y132.515 E223.31989
G1 X81.243 Y87.485 E225.75433
G1 X80.723 Y87.485 E225.77422
G1 X125.753 Y132.515 E228.20866
G1 X125.233 Y132.515 E228.22854
G1 X80.203 Y87.485 E230.66298
G1 X79.683 Y87.485 E230.68287
G1 X124.713 Y132.515 E233.11731
G1 X124.193 Y132.515 E233.13719
G1 X79.163 Y87.485 E235.57163
G1 X78.642 Y87.485 E235.59152
G1 X123.673 Y132.515 E238.02596
G1 X123.153 Y132.515 E238.04584
G1 X78.122 Y87.485 E240.48028
G1 X77.602 Y87.485 E240.50017
G1 X122.633 Y132.515 E242.93461
G1 X122.113 Y132.515 E242.95449
G1 X77.082 Y87.485 E245.38893
G1 X76.562 Y87.485 E245.40881
G1 X121.592 Y132.515 E247.84326
G1 X121.072 Y132.515 E247.86314
G1 X76.042 Y87.485 E250.29758
G1 X75.522 Y87.485 E250.31746
G1 X120.552 Y132.515 E252.75190
G1 X120.032 Y132.515 E252.77179
G1 X75.001 Y87.485 E255.20623
G1 X74.481 Y87.485 E255.22611
G1 X119.512 Y132.515 E257.66055
G1 X118.992 Y132.515 E257.68044
G1 X73.961 Y87.485 E260.11488
G1 X73.441 Y87.485 E260.13476
G1 X118.472 Y132.515 E262.56920
G1 X117.951 Y132.515 E262.58909
G1 X72.921 Y87.485 E265.02353
G1 X72.401 Y87.485 E265.04341
G1 X117.431 Y132.515 E267.47785
G1 X116.911 Y132.515 E267.49774
G1 X71.881 Y87.485 E269.93218
G1 X71.361 Y87.485 E269.95206
G1 X116.391 Y132.515 E272.38650
G1 X115.871 Y132.515 E272.40638
G1 X70.840 Y87.485 E274.84083
G1 X70.320 Y87.485 E274.86071
G1 X115.351 Y132.515 E277.29515
G1 X114.831 Y132.515 E277.31503
G1 X69.800 Y87.485 E279.74947
G1 X69.685 Y87.485 E279.75388
G1 X69.685 Y87.890 E279.76936
G1 X114.310 Y132.515 E282.18192
G1 X113.790 Y132.515 E282.20180
G1 X69.685 Y88.410 E284.58624
G1 X69.685 Y88.930 E284.60612
G1 X113.270 Y132.515 E286.96244
G1 X112.750 Y132.515 E286.98232
G1 X69.685 Y89.450 E289.31052
G1 X69.685 Y89.970 E289.33040
G1 X112.230 Y132.515 E291.63048
G1 X111.710 Y132.515 E291.65036
G1 X69.685 Y90.490 E293.92232
G1 X69.685 Y91.010 E293.94221
G1 X111.190 Y132.515 E296.18604
G1 X110.669 Y132.515 E296.20593
G1 X69.685 Y91.531 E298.42165
G1 X69.685 Y92.051 E298.44153
G1 X110.149 Y132.515 E300.62913
G1 X109.629 Y132.515 E300.64901
G1 X69.685 Y92.571 E302.80849
G1 X69.685 Y93.091 E302.82838
G1 X109.109 Y132.515 E304.95974
G1 X108.589 Y132.515 E304.97962
G1 X69.685 Y93.611 E307.08286
G1 X69.685 Y94.131 E307.10274
G1 X108.069 Y132.515 E309.17786
G1 X107.549 Y132.515 E309.19775
G1 X69.685 Y94.651 E311.24475
G1 X69.685 Y95.171 E311.26463
G1 X107.029 Y132.515 E313.28351
G1 X106.508 Y132.515 E313.30340
G1 X69.685 Y95.692 E315.29416
G1 X69.685 Y96.212 E315.31404
G1 X105.988 Y132.515 E317.27668
G1 X105.468 Y132.515 E317.29656
G1 X69.685 Y96.732 E319.23109
G1 X69.685 Y97.252 E319.25097
G1 X104.948 Y132.515 E321.15737
G1 X104.428 Y132.515 E321.17726
G1 X69.685 Y97.772 E323.05554
G1 X69.685 Y98.292 E323.07542
G1 X103.908 Y132.515 E324.92558
G1 X103.388 Y132.515 E324.94547
G1 X69.685 Y98.812 E326.76751
G1 X69.685 Y99.333 E326.78739
G1 X102.867 Y132.515 E328.58132
G1 X102.347 Y132.515 E328.60120
G1 X69.685 Y99.853 E330.36700
G1 X69.685 Y100.373 E330.38689
G1 X101.827 Y132.515 E332.12457
G1 X101.307 Y132.515 E332.14445
G1 X69.685 Y100.893 E333.85402
G1 X69.685 Y101.413 E333.87390
G1 X100.787 Y132.515 E335.55535
G1 X100.267 Y132.515 E335.57523
G1 X69.685 Y101.933 E337.22855
G1 X69.685 Y102.453 E337.24844
G1 X99.747 Y132.515 E338.87364
G1 X99.226 Y132.515 E338.89353
G1 X69.685 Y102.974 E340.49061
G1 X69.685 Y103.494 E340.51050
G1 X98.706 Y132.515 E342.07946
G1 X98.186 Y132.515 E342.09934
G1 X69.685 Y104.014 E343.64019
G1 X69.685 Y104.534 E343.66007
G1 X97.666 Y132.515 E345.17280
G1 X97.146 Y132.515 E345.19268
G1 X69.685 Y105.054 E346.67729
G1 X69.685 Y105.574 E346.69717
G1 X96.626 Y132.515 E348.15366
G1 X96.106 Y132.515 E348.17354
G1 X69.685 Y106.094 E349.60191
G1 X69.685 Y106.615 E349.62179
G1 X95.585 Y132.515 E351.02204
G1 X95.065 Y132.515 E351.04192
G1 X69.685 Y107.135 E352.41405
G1 X69.685 Y107.655 E352.43393
G1 X94.545 Y132.515 E353.77794
G1 X94.025 Y132.515 E353.79783
G1 X69.685 Y108.175 E355.11371
G1 X69.685 Y108.695 E355.13360
G1 X93.505 Y132.515 E356.42137
G1 X92.985 Y132.515 E356.44125
G1 X69.685 Y109.215 E357.70090
G1 X69.685 Y109.735 E357.72078
G1 X92.465 Y132.515 E358.95231
G1 X91.945 Y132.515 E358.97219
G1 X69.685 Y110.255 E360.17560
G1 X69.685 Y110.776 E360.19549
G1 X91.424 Y132.515 E361.37078
G1 X90.904 Y132.515 E361.39066
G1 X69.685 Y111.296 E362.53783
G1 X69.685 Y111.816 E362.55771
G1 X90.384 Y132.515 E363.67676
G1 X89.864 Y132.515 E363.69665
G1 X69.685 Y112.336 E364.78758
G1 X69.685 Y112.856 E364.80746
G1 X89.344 Y132.515 E365.87027
G1 X88.824 Y132.515 E365.89015
G1 X69.685 Y113.376 E366.92484
G1 X69.685 Y113.896 E366.94473
G1 X88.304 Y132.515 E367.95130
G1 X87.783 Y132.515 E367.97118
G1 X69.685 Y114.417 E368.94963
G1 X69.685 Y114.937 E368.96952
G1 X87.263 Y132.515 E369.91985
G1 X86.743 Y132.515 E369.93973
G1 X69.685 Y115.457 E370.86194
G1 X69.685 Y115.977 E370.88183
G1 X86.223 Y132.515 E371.77592
G1 X85.703 Y132.515 E371.79580
G1 X69.685 Y116.497 E372.66178
G1 X69.685 Y117.017 E372.68166
G1 X85.183 Y132.515 E373.51951
G1 X84.663 Y132.515 E373.53940
G1 X69.685 Y117.537 E374.34913
G1 X69.685 Y118.058 E374.36901
G1 X84.142 Y132.515 E375.15063
G1 X83.622 Y132.515 E375.17051
G1 X69.685 Y118.578 E375.92400
G1 X69.685 Y119.098 E375.94389
G1 X83.102 Y132.515 E376.66926
G1 X82.582 Y132.515 E376.68914
G1 X69.685 Y119.618 E377.38640
G1 X69.685 Y120.138 E377.40628
G1 X82.062 Y132.515 E378.07542
G1 X81.542 Y132.515 E378.09530
G1 X69.685 Y120.658 E378.73632
G1 X69.685 Y121.178 E378.75620
G1 X81.022 Y132.515 E379.36909
G1 X80.501 Y132.515 E379.38898
G1 X69.685 Y121.699 E379.97375
G1 X69.685 Y122.219 E379.99364
G1 X79.981 Y132.515 E380.55029
G1 X79.461 Y132.515 E380.57018
G1 X69.685 Y122.739 E381.09871
G1 X69.685 Y123.259 E381.11859
G1 X78.941 Y132.515 E381.61901
G1 X78.421 Y132.515 E381.63889
G1 X69.685 Y123.779 E382.11119
G1 X69.685 Y124.299 E382.13107
G1 X77.901 Y132.515 E382.57525
G1 X77.381 Y132.515 E382.59513
G1 X69.685 Y124.819 E383.01119
G1 X69.685 Y125.339 E383.03108
G1 X76.861 Y132.515 E383.41901
G1 X76.340 Y132.515 E383.43890
G1 X69.685 Y125.860 E383.79871
G1 X69.685 Y126.380 E383.81860
G1 X75.820 Y132.515 E384.15030
G1 X75.300 Y132.515 E384.17018
G1 X69.685 Y126.900 E384.47376
G1 X69.685 Y127.420 E384.49364
G1 X74.780 Y132.515 E384.76910
G1 X74.260 Y132.515 E384.78898
G1 X69.685 Y127.940 E385.03632
G1 X69.685 Y128.460 E385.05620
G1 X73.740 Y132.515 E385.27542
G1 X73.220 Y132.515 E385.29531
G1 X69.685 Y128.980 E385.48641
G1 X69.685 Y129.501 E385.50629
